X: 405
T:Gwynt y Glan
R:jig
H:noted as Welsh version of the Girls of Banbridge
D:Saith Rhyfeddod
Z:lesl from the playing of Jonathan Shorland
M:6/8
Q:3/8=130
K:D
|:A2d dcB|ABA FED|F~F2 DEF|FED EFG|
A2d dcB|ABA F2z|fdf gec|edc d3:|
|:A2d dfa|agf efg|fdf ged|cdc BcB|
A3 dfa|agf efg|fdf gec|edc d3:||
<end>
<start>
